packages/kaspersky-hexa-ui-icons/src/iconsSVGs/16/StatusStarting.svg

<svg width="16" height="16" viewBox="0 0 16 16" fill="none" xmlns="http://www.w3.org/2000/svg">
<path fill-rule="evenodd" clip-rule="evenodd" d="M7 8L4.58579 10.4142C4.21071 10.7893 4 11.298 4 11.8284V14C4 14.5523 4.44772 15 5 15H11C11.5523 15 12 14.5523 12 14V11.8284C12 11.298 11.7893 10.7893 11.4142 10.4142L9 8L11.4142 5.58579C11.7893 5.21071 12 4.70201 12 4.17157V2C12 1.44772 11.5523 1 11 1H5C4.44772 1 4 1.44772 4 2V4.17157C4 4.70201 4.21071 5.21071 4.58579 5.58579L7 8ZM7.91924 8.91924C7.9476 8.89087 7.97452 8.86133 7.99995 8.83073C8.02528 8.86116 8.05222 8.8907 8.08076 8.91924L10.495 11.3335C10.6263 11.4647 10.7 11.6428 10.7 11.8284V13.7H5.3V11.8284C5.3 11.6428 5.37375 11.4647 5.50503 11.3335L7.91924 8.91924ZM10.7 4V2.3H5.3V4H10.7Z" fill="black"/>
</svg>

<svg xmlns="http://www.w3.org/2000/svg" width="16" height="16" fill="none" viewBox="0 0 16 16"><path fill="#000" fill-rule="evenodd" d="m7 8-2.4142 2.4142A2 2 0 0 0 4 11.8284V14c0 .5523.4477 1 1 1h6c.5523 0 1-.4477 1-1v-2.1716a2 2 0 0 0-.5858-1.4142L9 8l2.4142-2.4142A2 2 0 0 0 12 4.1716V2c0-.5523-.4477-1-1-1H5c-.5523 0-1 .4477-1 1v2.1716a2 2 0 0 0 .5858 1.4142zm.9192.9192A1.3 1.3 0 0 0 8 8.8307q.038.0457.0808.0885l2.4142 2.4143a.7.7 0 0 1 .205.4949V13.7H5.3v-1.8716a.7.7 0 0 1 .205-.4949zM10.7 4V2.3H5.3V4z"/></svg>
